X: 1
T: Pappilan pellolla
O: trad Finland
R: shottish
Z: 2002 John Chambers <jc:trillian.mit.edu>
M: 4/4
L: 1/8
K: G
|: "C"g2 fa g2 fe | "G"e>d dB G2 Bd |\
[1,3 "D7"d>c cA F2 Ac | "G"e>d dB G2 Bd :|\
[2,4 "D7"d>c cA F2 FA | A2 G2 "G"G4 :|
|: "D7"D2 FA c2 Bc | "G"e>d dB G2 Bd |\
[1,3 "D7"d>c cA F2 Ac | "G"e>d dB GG FE :|\
[2,4 "D7"d>c cA F2 FA | A2 G2 "G"G4 :|

%%sep 1 1 500

